packages/icons/src/components/Icon/assets/small-outline/lock.svg

<svg width="16" height="16" viewBox="0 0 16 16" fill="none" xmlns="http://www.w3.org/2000/svg">
<path fill-rule="evenodd" clip-rule="evenodd" d="M4.45434 4.54487C4.45434 2.58709 6.04143 1 7.99921 1C9.95699 1 11.5441 2.58709 11.5441 4.54487V6.4314C12.6424 6.47839 13.5184 7.38369 13.5184 8.49359V12.9359C13.5184 14.0759 12.5943 15 11.4543 15H4.54408C3.40411 15 2.47998 14.0759 2.47998 12.9359V8.49359C2.47998 7.38369 3.356 6.47839 4.45434 6.4314V4.54487ZM4.54408 7.59615C4.04844 7.59615 3.64665 7.99795 3.64665 8.49359V12.9359C3.64665 13.4315 4.04844 13.8333 4.54408 13.8333H11.4543C11.95 13.8333 12.3518 13.4315 12.3518 12.9359V8.49359C12.3518 7.99795 11.95 7.59615 11.4543 7.59615H4.54408ZM10.3774 6.42949H5.62101V4.54487C5.62101 3.23143 6.68576 2.16667 7.99921 2.16667C9.31266 2.16667 10.3774 3.23143 10.3774 4.54487V6.42949Z" fill="black"/>
</svg>

<svg xmlns="http://www.w3.org/2000/svg" width="16" height="16" fill="none" viewBox="0 0 16 16">
    <path d="M4.454 4.545a3.545 3.545 0 1 1 7.09 0V6.43a2.064 2.064 0 0 1 1.974 2.063v4.442c0 1.14-.924 2.064-2.064 2.064h-6.91a2.064 2.064 0 0 1-2.064-2.064V8.494c0-1.11.876-2.016 1.974-2.063zm.09 3.051a.897.897 0 0 0-.897.898v4.442c0 .495.401.897.897.897h6.91a.897.897 0 0 0 .898-.897V8.494a.897.897 0 0 0-.898-.898zm5.833-1.167H5.621V4.545a2.378 2.378 0 1 1 4.756 0z" clip-rule="evenodd"/>
</svg>
